remix/Logos/slack-line.svg

<svg viewBox="0 0 24 24" fill="currentColor" xmlns="http://www.w3.org/2000/svg"><path d="M14.501 3C15.3294 3 16.001 3.67157 16.001 4.5V9.5C16.001 10.3284 15.3294 11 14.501 11C13.6725 11 13.001 10.3284 13.001 9.5V4.5C13.001 3.67157 13.6725 3 14.501 3ZM4.50098 13H6.00098V14.5C6.00098 15.3284 5.3294 16 4.50098 16C3.67255 16 3.00098 15.3284 3.00098 14.5C3.00098 13.6716 3.67255 13 4.50098 13ZM13.001 18H14.501C15.3294 18 16.001 18.6716 16.001 19.5C16.001 20.3284 15.3294 21 14.501 21C13.6725 21 13.001 20.3284 13.001 19.5V18ZM14.501 13H19.501C20.3294 13 21.001 13.6716 21.001 14.5C21.001 15.3284 20.3294 16 19.501 16H14.501C13.6725 16 13.001 15.3284 13.001 14.5C13.001 13.6716 13.6725 13 14.501 13ZM19.501 8C20.3294 8 21.001 8.67157 21.001 9.5C21.001 10.3284 20.3294 11 19.501 11H18.001V9.5C18.001 8.67157 18.6725 8 19.501 8ZM4.50098 8H9.50098C10.3294 8 11.001 8.67157 11.001 9.5C11.001 10.3284 10.3294 11 9.50098 11H4.50098C3.67255 11 3.00098 10.3284 3.00098 9.5C3.00098 8.67157 3.67255 8 4.50098 8ZM9.50098 3C10.3294 3 11.001 3.67157 11.001 4.5V6H9.50098C8.67255 6 8.00098 5.32843 8.00098 4.5C8.00098 3.67157 8.67255 3 9.50098 3ZM9.50098 13C10.3294 13 11.001 13.6716 11.001 14.5V19.5C11.001 20.3284 10.3294 21 9.50098 21C8.67255 21 8.00098 20.3284 8.00098 19.5V14.5C8.00098 13.6716 8.67255 13 9.50098 13Z"/></svg>

<svg viewBox="0 0 24 24" xmlns="http://www.w3.org/2000/svg"><path fill="none" d="M0 0h24v24H0Z"/><path d="M14.5 3v0c.82 0 1.5.67 1.5 1.5v5 0c0 .82-.68 1.5-1.5 1.5 -.83 0-1.5-.68-1.5-1.5v-5 0c0-.83.67-1.5 1.5-1.5Zm-10 10H6v1.5 0c0 .82-.68 1.5-1.5 1.5 -.83 0-1.5-.68-1.5-1.5 0-.83.67-1.5 1.5-1.5Zm8.5 5h1.5v0c.82 0 1.5.67 1.5 1.5 0 .82-.68 1.5-1.5 1.5 -.83 0-1.5-.68-1.5-1.5V18Zm1.5-5h5v0c.82 0 1.5.67 1.5 1.5 0 .82-.68 1.5-1.5 1.5h-5v0c-.83 0-1.5-.68-1.5-1.5 0-.83.67-1.5 1.5-1.5Zm5-5v0c.82 0 1.5.67 1.5 1.5 0 .82-.68 1.5-1.5 1.5H18V9.5v0c0-.83.67-1.5 1.5-1.5Zm-15 0h5v0c.82 0 1.5.67 1.5 1.5 0 .82-.68 1.5-1.5 1.5h-5v0C3.67 11 3 10.32 3 9.5 3 8.67 3.67 8 4.5 8Zm5-5v0c.82 0 1.5.67 1.5 1.5V6H9.5v0C8.67 6 8 5.32 8 4.5 8 3.67 8.67 3 9.5 3Zm0 10v0c.82 0 1.5.67 1.5 1.5v5 0c0 .82-.68 1.5-1.5 1.5 -.83 0-1.5-.68-1.5-1.5v-5 0c0-.83.67-1.5 1.5-1.5Z"/></svg>
